!!!OTL: Wiedersehen an der Bahre Ein Juengling wollt' zum Kampfe gehn,
!!!ARE: Europa, Mitteleuropa, Deutschland (BRD), Rheinland, Wuppertal, Beyenburg
!!!YOR: 3, S. 70
!!    ????
!!!SCT: Q0056C
!!!YEM: Copyright 1995, estate of Helmut Schaffrath.
**kern
*ICvox
*Ivox
*M3/4
*k[b-e-a-]
*E-:
{8e-
=1
8e-
8g
4b-
8a-
8g
=2
8b-
8f
4f
8r}
{8f
=3
8f
8cc
4b-
4f
=4
4a-
4g
8r}
{8b-
=5
8b-
8dd
4.ff
8a-
=6
8g
8b-
4.ee-}
{8ee-
=7
8dd
8cc
4b-
4f
=8
4a-
4g
8r}
==
!!!AGN: Ballade, Abschied, Enttaeuschung, Tod, Selbstmord
!!!ONB: ESAC (Essen Associative Code) Database: BALLADE
!!!AMT: simple triple
!!!AIN: vox
!!!EED: Helmut Schaffrath
!!!EEV: 1.0
*-
